X:634
T:BNYMAY- Bonnie May
O:england
S:Scots Musical Museum
Q:1/4=120
L:1/8
M:C
K:Dm
(FG)|A2A G A2d d|c2G3/2 G/G2FG|A/ A3/2 A Af2e d|\
e6A2|f2e d e2 (dc)|d3 cG2Ac|d3c A3/2 G/ A c|d4|]


